usr/share/icons/biglinux-icons-material/24/actions/mail-replied.svg

<svg xmlns="http://www.w3.org/2000/svg" viewBox="0 0 24 24">
  <defs id="defs3051">
    <style type="text/css" id="current-color-scheme">
      .ColorScheme-Text {
        color:#dedede;
      }
      </style>
  </defs>
 <path style="fill:currentColor;fill-opacity:1;stroke:none" 
     d="M 4 4 L 4 5 L 4 6 L 4 7 L 2 10 L 2 11 L 2 12.400391 L 2 13 L 3 13 L 3 12 L 3 11.400391 L 3 11 L 3.4003906 11 L 4 11 L 5.078125 11 L 12 14.996094 L 18.921875 11 L 19 11 L 20 11 L 21 11 L 21 11.400391 L 21 12 L 21 13 L 21 19 L 15 19 L 8 19 L 8 20 L 9 20 L 15 20 L 21 20 L 22 20 L 22 19 L 22 13 L 22 12.400391 L 22 10.986328 L 22 10 L 20 7 L 20 4 L 5 4 L 4 4 z M 5 5 L 19 5 L 19 6 L 19 9.7988281 L 12 13.839844 L 5 9.7988281 L 5 6 L 5 5 z M 6 6 L 6 6.9863281 L 5.9863281 7 L 6 7 L 18 7 L 18.013672 7 L 18 6.9863281 L 18 6 L 6 6 z M 6 8 L 6 9 L 13 9 L 13 8 L 6 8 z M 5 14 L 2 17 L 5 20 L 5 18 L 7 18 L 7 16 L 5 16 L 5 14 z "
     class="ColorScheme-Text"
     />
</svg>

<svg xmlns="http://www.w3.org/2000/svg" viewBox="0 0 24 24"><path d="M4 4v3l-2 3v3h1v-2H5.078L12 14.996 18.922 11H21v8H8v1h14V10l-2-3V4H4zm1 1h14V9.799l-7 4.04L5 9.8V5zm1 1v.986L5.986 7H18.014L18 6.986V6H6zm0 2v1h7V8H6zm-1 6-3 3 3 3v-2h2v-2H5v-2z" style="fill:currentColor;fill-opacity:1;stroke:none;color:#dedede"/></svg>
